X:1
T: Ballochmyle Brig
C:A. McAlpine
R:Reel
Q:232
K:A
M:4/4
L:1/8
|:e|dc BA EA cd|ef ec B2ec|dc BA EA cd|cd BG A2Ae|
dc BA EA cd|ef ec B2ec|dc BA EA cd|cd BG A2ed|
c2ea d2fb|ga gf ef ed|c2ea d2fb|ga gf e2dc|
dd db cc ca|Bc BA GF ED|CE Ac df af|ed cB A3:|
